src/lib/packages/icons/src/assets/line/arrow-left-square.svg

<svg width="24" height="24" viewBox="0 0 24 24" fill="none" xmlns="http://www.w3.org/2000/svg">
<path d="M17.625 2.25H6.375C3.715 2.25 2.25 3.715 2.25 6.375V17.625C2.25 20.285 3.715 21.75 6.375 21.75H17.625C20.285 21.75 21.75 20.285 21.75 17.625V6.375C21.75 3.715 20.285 2.25 17.625 2.25ZM20.25 17.625C20.25 19.465 19.465 20.25 17.625 20.25H6.375C4.535 20.25 3.75 19.465 3.75 17.625V6.375C3.75 4.535 4.535 3.75 6.375 3.75H17.625C19.465 3.75 20.25 4.535 20.25 6.375V17.625ZM16.75 12C16.75 12.414 16.414 12.75 16 12.75H9.81104L11.531 14.47C11.824 14.763 11.824 15.238 11.531 15.531C11.385 15.677 11.193 15.751 11.001 15.751C10.809 15.751 10.6169 15.678 10.4709 15.531L7.47095 12.531C7.40195 12.462 7.34708 12.3791 7.30908 12.2871C7.23308 12.1041 7.23308 11.8971 7.30908 11.7141C7.34708 11.6221 7.40195 11.539 7.47095 11.47L10.4709 8.46997C10.7639 8.17697 11.239 8.17697 11.532 8.46997C11.825 8.76297 11.825 9.23801 11.532 9.53101L9.81201 11.251H16C16.414 11.25 16.75 11.586 16.75 12Z" fill="currentColor"/>
</svg>

<svg xmlns="http://www.w3.org/2000/svg" width="24" height="24" fill="none"><path fill="currentColor" d="M17.625 2.25H6.375c-2.66 0-4.125 1.465-4.125 4.125v11.25c0 2.66 1.465 4.125 4.125 4.125h11.25c2.66 0 4.125-1.465 4.125-4.125V6.375c0-2.66-1.465-4.125-4.125-4.125Zm2.625 15.375c0 1.84-.785 2.625-2.625 2.625H6.375c-1.84 0-2.625-.785-2.625-2.625V6.375c0-1.84.785-2.625 2.625-2.625h11.25c1.84 0 2.625.785 2.625 2.625v11.25ZM16.75 12a.75.75 0 0 1-.75.75H9.811l1.72 1.72a.75.75 0 0 1-1.06 1.061l-3-3a.748.748 0 0 1-.162-.817.749.749 0 0 1 .162-.244l3-3a.75.75 0 0 1 1.061 1.061l-1.72 1.72H16a.749.749 0 0 1 .75.749Z"/></svg>
